X:1
T:Title
%%score ( 1 2 ) ( 3 4 )
L:1/8
Q:1/4=100
M:3/4
K:G
V:1 treble nm="Midi_20"
V:2 treble 
V:3 bass nm="Midi_20"
V:4 bass 
V:1
"^Almsgiving (88. 84)""^John Bacchus Dykes\n(1823-76)""^O Lord of heaven and earth and sea""^Christopher Wordsworth\n(1807-85)" B2 B2 A2 | %1
w: O Lord *|
w: The gol\- *|
w: For peace\- *|
w: Thou didst *|
w: Thou giv'st *|
w: For souls *|
 G4 D2 | G4 A2 | B6 || D2 G2 B2 |[M:3/4] d4 c2 | (B2 A2) G2 | A6 || F2 G2 A2 | G4 G2 | (B2 c2) d2 | %11
w: |earth and|sea,|To Thee all||glo\- * ry|be;||||
w: |ver- nal|air,|Sweet flowers and||love * de-|clare;||||
w: |health- ful|days,|For all the||earth * dis-|plays,||||
w: |on- ly|Son,|But gav'st Him||world * un-|done,||||
w: |bless- ed|dower,|Spi- rit of||love * and|power,||||
w: |sins for-|given,|For means of||hopes * of|heaven,||||
 e6 || G2 B3 A | G6 |] %14
w: |||
w: |||
w: |||
w: |||
w: |||
w: |||
V:2
 D2 D2 (DC) | (B,3 C) D2 | D2 C4 | B,6 || D2 D2 G2 |[M:3/4] (G2 FE) F2 | D4 G2 | F6 || D2 D2 C2 | %9
w: * * of *|||||praise * * and||||
w: * * den *|||||fruits * * Thy||||
w: * * ful *|||||bless\- * * ings||||
w: * * not *|||||for * * a||||
w: * * the *|||||life * * and||||
w: * * re\- *|||||grace * * and||||
 B,4 C2 | (D2 G2) =F2 | E6 || D2 G3 F | G6 |] %14
w: |||||
w: |||||
w: |||||
w: |||||
w: |||||
w: |||||
V:3
 G,2 G,2 F,2 | (G,3 A,) (B,A,) | G,4 F,2 | G,6 || B,2 B,2 B,2 |[M:3/4] (B,2 A,G,) A,2 | %6
w: |heaven * and *|||||
w: |sun\- * shine, *|||||
w: |homes * and *|||||
w: |spare * Thine *|||||
w: |Spi\- * rit's *|||||
w: |deemed, * for *|||||
 G,2 A,2 B,2 | D6 || C2 B,2 F,2 | (G,2 D2) C2 | (B,2 G,2) (A,B,) | (C2 G,2 A,2) || B,G, D3 C | %13
w: ||How shall we|show * our|love * to *|Thee, * *|Who * giv- est|
w: ||Where har- vests|ri\- * pen,|Thou * art *|there, * *|Who * giv- est|
w: ||We owe Thee|thank\- * ful-|ness * and *|praise, * *|Who * giv- est|
w: ||And free- ly|with * that|bless\- * ed *|One * *|Thou * giv- est|
w: ||And dost His|seven\- * fold|gra\- * ces *|shower * *|U\- * pon us|
w: ||Fa- ther, all|praise * to|Thee * be *|given, * *|Who * giv- est|
 B,6 |] %14
w: all?|
w: all.|
w: all.|
w: all.|
w: all.|
w: all.|
V:4
 G,,2 B,,2 D,2 | G,4 (G,F,) | E,4 D,2 | G,,6 || G,2 G,2 E,2 |[M:3/4] D,4 D,2 | G,2 F,2 E,2 | D,6 || %8
 D,2 D,2 D,2 | (G,2 B,2) A,2 | (G,=F, E,2) D,2 | C,6 || D,2 D,2 D,2 | G,6 |] %14

